src/img/svg/sports-tv-logo.svg

<svg width="149" height="49" viewBox="0 0 149 49" fill="none" xmlns="http://www.w3.org/2000/svg">
<path fill-rule="evenodd" clip-rule="evenodd" d="M58.6034 30.3285H63.9982L66.0951 21.3744C66.4293 20.1608 66.7618 19.2621 67.2225 18.8283C68.3206 17.7958 71.2701 17.9575 71.2701 17.9575L72.4636 12.8954C70.5914 12.9054 67.693 12.8698 65.8933 13.3726C64.8531 13.6637 63.755 14.4798 63.1313 15.1438C61.9919 16.3564 61.3114 18.8657 61.3114 18.8657L58.6034 30.3285ZM11.9454 17.4758H31.6654C32.8158 17.5054 33.7372 17.957 34.1625 18.5624C34.6804 19.3005 35.2327 20.4011 34.3811 22.4777C33.4717 24.6949 31.8475 25.3583 30.152 25.4102H26.6212L28.0769 19.1723H22.6467L17.7911 40H23.1924L25.4561 30.3235C25.4561 30.3235 27.0258 30.3301 29.0594 30.3313C30.6301 30.2973 32.4729 30.1083 34.2121 29.1822C36.0925 28.1815 37.3759 26.5113 38.1801 25.016C38.9221 23.6362 39.4002 21.3767 39.512 20.1329C39.6101 19.0447 39.7464 17.2172 38.4423 15.4359C37.8491 14.6253 36.5488 13.6324 35.2316 13.3147C33.7934 12.9684 31.7887 12.9495 31.7887 12.9495H11.2612C8.10173 12.9796 6.42032 14.0963 5.48093 15.0786C4.46631 16.1406 3.94728 17.6018 3.95218 18.8746C3.95709 20.0805 4.27058 21.3622 4.95645 22.1354C5.58016 22.8379 6.62368 23.6167 8.69818 23.7583H12.3014C12.3014 23.7583 12.7992 23.7745 13.0734 23.8994C13.339 24.0215 13.5347 24.3554 13.4883 24.681C13.4316 25.0774 13.3046 25.5791 11.989 25.6338H1.73975L0 30.353H12.2954C13.9332 30.3313 16.9591 30.0196 18.3445 27.5839C18.8602 26.6768 19.3198 24.9804 19.3367 23.721C19.3542 22.4465 18.9246 21.5908 18.6721 21.1531C18.3396 20.5756 17.7093 19.9104 16.445 19.4784C15.7869 19.2532 14.3487 19.2108 14.3487 19.2108H10.9635C10.3087 19.2108 9.80494 19.009 9.872 18.34C9.91017 17.9598 10.2035 17.6459 10.571 17.5361C10.8419 17.4541 11.9454 17.4758 11.9454 17.4758ZM50.9482 16.5498C49.6075 16.5643 48.4446 17.0839 47.3128 18.1995C46.2366 19.2604 45.6614 20.9106 45.548 22.3668C45.4776 23.2672 45.7262 24.521 46.3129 25.2864C46.8886 26.0379 48.0548 26.6083 49.1534 26.5798C50.8201 26.5375 51.9737 26.0168 52.8951 24.9848C53.9768 23.7739 54.6883 21.9576 54.6458 20.2366C54.6223 19.3312 54.4326 18.4085 53.6459 17.603C52.8575 16.7974 51.7818 16.5409 50.9482 16.5498L51.6477 12.445C53.883 12.4154 56.3435 13.0409 57.9154 14.5902C59.4883 16.1395 59.8138 18.1906 59.7865 19.8731C59.7527 21.9743 59.039 24.8622 56.5186 27.6424C54.2974 30.0915 50.4324 31.0432 47.7539 30.9189C45.0753 30.7945 43.094 29.9282 41.6394 28.3939C40.3653 27.0504 39.9067 25.481 39.9067 23.4985C39.9067 21.748 40.4536 19.4762 42.0979 17.24C44.0268 14.617 47.7179 12.4974 51.6482 12.4455L50.9482 16.5498ZM75.1024 8H80.5408L79.361 12.9802H83.4881L82.353 17.9079H78.2258L77.0024 23.3865C76.8067 24.5026 76.9959 25.0712 77.6147 25.4481C77.8693 25.6036 78.7285 25.6711 78.7285 25.6711H90.4771C91.7878 25.6494 92.7283 25.5284 92.7697 24.6369C92.8144 23.721 91.7005 23.7438 91.7005 23.7438H88.3584C86.6111 23.6546 85.1477 23.1629 84.4493 22.4042C83.8458 21.7485 83.2919 20.774 83.3355 18.8757C83.3846 16.7327 84.493 15.2135 84.9733 14.7446C85.4536 14.2758 87.2299 12.9356 89.8065 12.9802H102L100.304 17.4686H90.3016C89.6468 17.4909 89.3485 17.5907 89.1664 17.826C88.9767 18.0713 88.8851 18.457 89.0132 18.7642C89.1326 19.0497 89.4287 19.1662 90.2579 19.2108H93.3814C94.9756 19.3 96.301 19.5553 97.0937 20.2377C97.8166 20.8599 98.5134 21.6666 98.5134 23.7438C98.5134 26.0898 97.3816 27.6095 96.6139 28.4112C95.6631 29.4041 94.3426 30.1306 90.3899 30.3318H75.8896C74.3167 30.309 73.0284 30.3764 71.8273 28.9698C70.6262 27.5633 71.0341 25.8055 71.1502 24.8231L75.1024 8Z" fill="black"/>
<path d="M109.76 35L113.756 12.392H106.556L107.132 9.224H124.844L124.268 12.392H117.068L113.072 35H109.76ZM126.141 9.224H129.741L133.089 30.14H133.233L144.285 9.224H148.029L134.097 35H130.641L126.141 9.224Z" fill="black"/>
</svg>

<svg width="149" height="49" fill="none" xmlns="http://www.w3.org/2000/svg"><path fill-rule="evenodd" clip-rule="evenodd" d="M58.603 30.328h5.395l2.097-8.954c.334-1.213.667-2.112 1.127-2.546 1.099-1.032 4.048-.87 4.048-.87l1.194-5.063c-1.873.01-4.771-.025-6.57.478-1.04.29-2.139 1.107-2.763 1.77-1.14 1.213-1.82 3.723-1.82 3.723l-2.708 11.462zM11.945 17.476h19.72c1.15.03 2.072.481 2.498 1.086.517.738 1.07 1.84.218 3.916-.91 2.217-2.534 2.88-4.229 2.932h-3.53l1.455-6.238h-5.43L17.79 40h5.401l2.264-9.677s1.57.007 3.603.008c1.571-.034 3.414-.223 5.153-1.149 1.88-1 3.164-2.67 3.968-4.166.742-1.38 1.22-3.64 1.332-4.883.098-1.088.234-2.916-1.07-4.697-.593-.81-1.893-1.804-3.21-2.121-1.439-.347-3.443-.365-3.443-.365H11.26c-3.16.03-4.84 1.146-5.78 2.129-1.015 1.062-1.534 2.523-1.529 3.796.005 1.206.319 2.487 1.004 3.26.624.703 1.668 1.482 3.742 1.623H12.3s.498.017.772.141a.773.773 0 0 1 .415.782c-.056.396-.183.898-1.499.953H1.739L0 30.353h12.295c1.638-.022 4.664-.333 6.05-2.77.515-.906.975-2.603.992-3.862a4.856 4.856 0 0 0-.665-2.568c-.332-.577-.963-1.243-2.227-1.675-.658-.225-2.096-.267-2.096-.267h-3.386c-.654 0-1.158-.202-1.091-.871.038-.38.332-.694.699-.804.27-.082 1.374-.06 1.374-.06zm39.003-.926c-1.34.014-2.503.534-3.635 1.65-1.076 1.06-1.652 2.71-1.765 4.167-.07.9.178 2.154.765 2.92.576.75 1.742 1.321 2.84 1.293 1.667-.042 2.82-.563 3.742-1.595 1.082-1.211 1.793-3.027 1.75-4.748-.023-.906-.212-1.828-1-2.634-.788-.806-1.863-1.062-2.697-1.053l.7-4.105c2.235-.03 4.695.596 6.267 2.145 1.573 1.55 1.899 3.6 1.871 5.283-.033 2.101-.747 4.99-3.267 7.77-2.222 2.448-6.087 3.4-8.765 3.276-2.679-.125-4.66-.99-6.115-2.525-1.274-1.344-1.732-2.913-1.732-4.895 0-1.751.547-4.023 2.19-6.259 1.93-2.623 5.62-4.743 9.551-4.794l-.7 4.104zM75.102 8h5.439l-1.18 4.98h4.127l-1.135 4.928h-4.127l-1.224 5.479c-.195 1.116-.006 1.684.613 2.061.254.156 1.114.223 1.114.223h11.748c1.31-.022 2.251-.143 2.293-1.034.044-.916-1.07-.893-1.07-.893h-3.342c-1.747-.09-3.21-.581-3.909-1.34-.603-.655-1.157-1.63-1.114-3.528.05-2.143 1.158-3.663 1.638-4.131.48-.47 2.257-1.81 4.834-1.765H102l-1.696 4.489H90.302c-.655.022-.954.122-1.136.357-.19.245-.28.631-.153.938.12.286.416.402 1.245.447h3.123c1.595.089 2.92.344 3.713 1.027.723.622 1.42 1.429 1.42 3.506 0 2.346-1.132 3.866-1.9 4.667-.95.993-2.271 1.72-6.224 1.92h-14.5c-1.573-.022-2.862.045-4.063-1.361-1.2-1.407-.793-3.165-.677-4.147L75.102 8z" fill="#000"/><path d="M109.76 35l3.996-22.608h-7.2l.576-3.168h17.712l-.576 3.168h-7.2L113.072 35h-3.312zm16.381-25.776h3.6l3.348 20.916h.144l11.052-20.916h3.744L134.097 35h-3.456l-4.5-25.776z" fill="#000"/></svg>
